X:1

T:Devil Take the Wars

M:C

L:1/8

R:Air

N:”Animated”

S:O’Neill – Music of Ireland (1903), No. 543

Z:AK/Fiddler’s Companion

K:D

d2 d>f fedc|dA Bc/d/ BAGF|FAAd d3e|fg/a/ gf f2 ez|d2 d>f fedc|dA Bc/d/ BAGF|

FAAd dfa>g|f2 e2 {d/4g/4e/4} d2 z||d|fdfa fd zd|ecea ec ze|f2 f>d e2 e>c|d>e f/e/d/c/ B3c|

A<BAF A3d|A>BAF A2 d>c|Beef e3f|gfed dcBA|A>BAF A2 a>g|f2 e2 {d/4f/4e/4}d2 z||

                       

DEVIL TO PAY, THE. Irish, Reel. A Major. Standard tuning. AB. Source for notated version: the Rice-Walsh manuscript, a collection of music from the repertoire of Jeremiah Breen, a blind fiddler from North Kerry, notated by his student [O’Neill]. O’Neill (Waifs and Strays of Gaelic Melody),1922; No. 280.

